X: 10462
M: 6/8
L: 1/8
K: D
|:\
efg agf | efd cBA |\
a3 f3 | ecA B3 | ABc dcB | ABG FED ::\
d3 B3
a3 f3 | ecA B3 | ABc dcB | ABG FED :|


